48x48/apps/omnetpp.svg

<svg xmlns="http://www.w3.org/2000/svg" width="48" height="48" version="1.1">
 <rect style="opacity:0.2" width="36" height="36" x="6" y="9" rx="1.8" ry="1.8"/>
 <rect style="fill:#008383" width="36" height="36" x="6" y="8" rx="1.8" ry="1.8"/>
 <path style="fill:#f4f4f7;opacity:0.1" d="M 7.8007812 8 C 6.8035813 8 6 8.8035813 6 9.8007812 L 6 10.800781 C 6 9.8035813 6.8035813 9 7.8007812 9 L 40.199219 9 C 41.196419 9 42 9.8035813 42 10.800781 L 42 9.8007812 C 42 8.8035813 41.196419 8 40.199219 8 L 7.8007812 8 z"/>
 <path style="fill:#d4d5cc" d="M 11,13 V 39 H 37 V 13 Z"/>
 <path style="opacity:0.1" d="M 34.193561,11.215652 C 32.273867,15.231956 26.694156,22.761853 18.958984,29.160156 12.4112,34.574304 6.1105955,37.602565 2,39 6.8192772,37.66911 14.304361,34.941497 21.939453,29.800781 29.363598,24.807526 36.299931,19.234817 39.698747,16.622913 36.938332,16.213389 34.916436,13.861923 34.193561,11.215652 Z"/>
 <path style="fill:#d43519" d="M 34.193561,10.215652 C 32.273867,14.231956 26.694156,21.761853 18.958984,28.160156 12.4112,33.574304 6.1105955,36.602565 2,38 6.8192772,36.66911 14.304361,33.941497 21.939453,28.800781 29.363598,23.807526 36.299931,18.234817 39.698747,15.622913 36.938332,15.213389 34.916436,12.861923 34.193561,10.215652 Z"/>
 <rect style="fill:#008383" width="5" height="5" x="6" y="33"/>
 <rect style="opacity:0.2" width="26" height="1" x="11" y="39"/>
 <path style="opacity:0.2" d="M 45,10.997711 C 45,14.309484 42.311929,17 38.999563,17 35.684621,17 33,14.309484 33,10.997711 33,7.6839154 35.684621,5 38.999563,5 42.311929,5 45,7.6839154 45,10.997711"/>
 <path style="fill:#f84529" d="M 45,9.997711 C 45,13.309484 42.311929,16 38.999563,16 35.684621,16 33,13.309484 33,9.997711 33,6.6839154 35.684621,4 38.999563,4 42.311929,4 45,6.6839154 45,9.997711"/>
 <path style="fill:#f4f4f7;opacity:0.2" d="M 39 4 C 35.685058 4 33 6.6842513 33 9.9980469 C 33 10.166798 33.011722 10.332795 33.025391 10.498047 C 33.279977 7.4190872 35.853971 5 39 5 C 42.143585 5 44.719712 7.4190872 44.974609 10.498047 C 44.988295 10.332795 45 10.166798 45 9.9980469 C 45 6.6842513 42.312366 4 39 4 z"/>
</svg>

<svg xmlns="http://www.w3.org/2000/svg" width="48" height="48"><rect style="opacity:.2" width="36" height="36" x="6" y="9" rx="1.8" ry="1.8"/><rect style="fill:#008383" width="36" height="36" x="6" y="8" rx="1.8" ry="1.8"/><path style="fill:#f4f4f7;opacity:.1" d="M7.8 8C6.805 8 6 8.804 6 9.8v1C6 9.805 6.804 9 7.8 9h32.4c.996 0 1.8.804 1.8 1.8v-1c0-.996-.804-1.8-1.8-1.8H7.8z"/><path style="fill:#d4d5cc" d="M11 13v26h26V13z"/><path style="opacity:.1" d="M34.194 11.216c-1.92 4.016-7.5 11.546-15.235 17.944C12.411 34.574 6.111 37.603 2 39c4.82-1.33 12.304-4.059 19.94-9.2 7.424-4.992 14.36-10.565 17.759-13.177-2.76-.41-4.783-2.761-5.505-5.407z"/><path style="fill:#d43519" d="M34.194 10.216c-1.92 4.016-7.5 11.546-15.235 17.944C12.411 33.574 6.111 36.603 2 38c4.82-1.33 12.304-4.059 19.94-9.2 7.424-4.992 14.36-10.565 17.759-13.177-2.76-.41-4.783-2.761-5.505-5.407z"/><path style="fill:#008383" d="M6 33h5v5H6z"/><path style="opacity:.2" d="M11 39h26v1H11zM45 10.998A6.004 6.004 0 0 1 39 17c-3.315 0-6-2.69-6-6.002A5.997 5.997 0 0 1 39 5a6 6 0 0 1 6 5.998"/><path style="fill:#f84529" d="M45 9.998A6.004 6.004 0 0 1 39 16c-3.315 0-6-2.69-6-6.002A5.997 5.997 0 0 1 39 4a6 6 0 0 1 6 5.998"/><path style="fill:#f4f4f7;opacity:.2" d="M39 4c-3.315 0-6 2.684-6 5.998 0 .169.012.335.025.5a5.995 5.995 0 0 1 11.95 0c.013-.165.025-.331.025-.5A6 6 0 0 0 39 4z"/></svg>
